!!!COM:	Busnoys, Antoine
!!!CDT:	~1430///-1492/11/06
!!!OTL:	Faulx mesdisans
!!!AGN:	Song; Chanson
!!!SCT:	Bus3022
!!!SCA:	Bus3022
!!!voices:	3
**kern	**kern	**kern
*staff3	*staff2	*staff1
*Ivox	*Ivox	*Ivox
*I"Contratenor	*I"Tenor	*I"Superius
*I'Ct	*I'T	*I'S
*clefF4	*clefGv2	*clefGv2
*k[b-]	*k[b-]	*k[b-]
*M2/1	*M2/1	*M2/1
*met(C|)	*met(C|)	*met(C|)
=1-	=1-	=1-
!	!	!LO:TX:Z=42:t=Rondeau
1.FF	0r	0r
2EE	.	.
=2	=2	=2
1FF	1.F	0r
1GG	.	.
.	2E	.
=3	=3	=3
1FF	1F	1.f
1C	1G	.
.	.	2e
=4	=4	=4
1D	1F	1f
1E	1B-	1g
=5	=5	=5
2F	1A	1f
1F	.	.
.	1G	1b-
2E	.	.
=6	=6	=6
1F	2F	1a
.	1F	.
1C	.	1g
.	2E	.
=7	=7	=7
2D	2F	2f
2F	2A	1f
1C	1G	.
.	.	2e
=8	=8	=8
1.D	2.F	1.f
.	4G	.
.	2A	.
[2BB-	[2B-	[2d
=9	=9	=9
2BB-]	2B-]	2d]
2C	4A	4c
.	4G	4B-
2.D	1F	1A
4C	.	.
=10	=10	=10
2BB-	2G	2B-
2.AA	2A	2.c
.	1F	.
4FF	.	4F
[2F	.	2A
=11	=11	=11
2F]	2r	1G
2E	2B-	.
1F	2A	2F
.	[2c	[2A
=12	=12	=12
2E	4c]	4A]
.	4B-	4G
2F	2A	1F
1C	1G	.
.	.	2E
=13	=13	=13
2r	1.F	1F
2.D	.	.
.	.	1r
4C	.	.
2BB-	2G	.
=14	=14	=14
2AA	1A	1.f
1D	.	.
.	1B-	.
2E	.	2g
=15	=15	=15
2C	2A	1a
1F	2F	.
.	1G	1b-
2E	.	.
=16	=16	=16
2F	2F	2a
2D	2.B-	2f
1E	.	1g
.	4A	.
.	4G	.
.	4F	.
=17	=17	=17
1D	2.A	2.f
.	4B-	4g
2C	2c	2a
[2BB-	[2d	[2b-
=18	=18	=18
4BB-]	4d]	4b-]
4C	4c	4a
2D	4B-	4g
.	4A	4f
2C	2c	2a
[2E	[2B-	[2g
=19	=19	=19
4E]	4B-]	4g]
4F	4A	4f
2D	4G	1f
.	4F	.
1C	1G	.
.	.	2e
=20	=20	=20
2D	1F	0f
1F	.	.
.	1r	.
2E	.	.
=21	=21	=21
2.F	1c	0r
4E	.	.
2F	2A	.
2G	[2B-	.
=22	=22	=22
1E	2B-]	1r
.	4A	.
.	4G	.
2F	2.F	1cc
2r	.	.
.	4E	.
=23	=23	=23
0r	2F	2a
.	2G	1b-
.	1E	.
.	.	4a
.	.	4g
=24	=24	=24
0r	2F	2.f
.	1A	.
.	.	4e
.	.	2f
.	2B-	2g
=25	=25	=25
1C	1G	1e
2D	1F	2f
[2F	.	[2a
=26	=26	=26
2F]	2c	2a]
2BB-	2d	2b-
1C	1e	1g
=27	=27	=27
1FF	2.f	1f
.	4e	.
1r	2c	2e
.	[2d	[2f
=28	=28	=28
1F	4d]	4f]
.	4c	4g
.	4B-	2a
.	4A	.
2.E	2.G	2b-
.	.	[2g
4F	4A	.
=29	=29	=29
2G	2B-	2g]
1F	2c	2a
.	2d	2f
2E	[2e	[2g
=30	=30	=30
2C	4e]	4g]
.	4d	4f
2E	1c	2e
2F	.	1d
2G	2Bni	.
=31	=31	=31
1.C	1c	2.c
.	.	4d
.	2c	2e
[2D	2A	[2f
=32	=32	=32
2D]	1B-	2f]
2E	.	2g
2.C	[1c	2.e
4D	.	4f
=33	=33	=33
2E	1c]	2g
1F	.	1a
.	1d	.
2G	.	2b-
=34	=34	=34
2E	2e	2g
2A	2c	1cc
1G	1d	.
.	.	2bni
=35	=35	=35
2.A	1c	2.cc
4G	.	4b-
4F	1r	4a
4E	.	4g
[2F	.	[2a
=36	=36	=36
4F]	1c	4a]
4E	.	4g
4D	.	4f
4C	.	4e
1D	1B-	1f
=37	=37	=37
2C	2c	2e
2.D	1A	2.f
4C	.	4e
2BB-	2G	2d
=38	=38	=38
2AA	2A	2c
2.BB-	1F	2.d
4AA	.	4c
2GG	2E	2B-
=39	=39	=39
1FFN	1FN	1AN
1r	1r	1r
=40	=40	=40
1AA	0r	0r
1BB-	.	.
=41	=41	=41
2C	1A	0r
2.D	.	.
.	1B-	.
4C	.	.
2BB-	.	.
=42	=42	=42
1AA	1c	1A
2GG	1d	1B-
2G	.	.
=43	=43	=43
2E	2.c	1c
2F	.	.
.	4A	.
2D	2B-	2d
2C	2c	2e
=44	=44	=44
1F	2F	2c
.	2A	1f
1C	1G	.
.	.	2e
=45	=45	=45
1D	2F	1f
.	1B-	.
2E	.	2g
[2F	2A	[2a
=46	=46	=46
2F]	1d	2a]
4E	.	4g
4D	.	4f
2F	2c	2a
2E	[2e	[2g
=47	=47	=47
1C	4e]	4g]
.	4d	4f
.	1c	2e
1G	.	1d
.	2Bni	.
=48	=48	=48
1C	1c	1c
1r	2d	2B-
.	2e	[2c
=49	=49	=49
1C	1c	2c]
.	.	4B-
.	.	4A
2BB-	1r	1G
[2C	.	.
=50	=50	=50
2C]	1c	1r
4BB-	.	.
4AA	.	.
2GG	2B-	1g
2r	[2c	.
=51	=51	=51
1r	2c]	1a
.	4B-	.
.	4A	.
1G	1G	1b-
=52	=52	=52
2F	1A	1cc
2A	.	.
2G	1B-	2b-
[2E	.	[2g
=53	=53	=53
2E]	1c	2g]
2.F	.	2.a
.	1F	.
4E	.	4g
2D	.	[2f
=54	=54	=54
1C	1G	2f]
.	.	2e
2.D	2.F	2.f
4E	4G	4e
=55	=55	=55
2F	2A	4d
.	.	4c
1.BB-	2B-	1d
.	2c	.
.	2d	4c
.	.	4B-
=56	=56	=56
1F	2.c	1A
.	4B-	.
2r	4A	2B-
.	4G	.
2F	[2A	[2c
=57	=57	=57
1F	4A]	4c]
.	4F	4F
.	1F	2A
1C	.	1G
.	2E	.
=58	=58	=58
2r	1.F	1F
2.D	.	.
.	.	1r
4C	.	.
2BB-	2G	.
=59	=59	=59
2AA	1A	1.f
1D	.	.
.	1B-	.
2E	.	2g
=60	=60	=60
2C	2A	1a
1F	2F	.
.	1G	1b-
2E	.	.
=61	=61	=61
2F	2F	2a
2D	2.B-	2f
1E	.	1g
.	4A	.
.	4G	.
.	4F	.
=62	=62	=62
2.D	2.A	2.f
8CL	4B-	4g
8BB-J	.	.
2AA	2c	2a
2GG	[2d	[2b-
=63	=63	=63
2r	4d]	4b-]
.	4e	4cc
2.D	2.f	2.dd
4E	4e	4cc
2F	4d	4b-
.	4c	4a
=64	=64	=64
2.BB-	2.d	2.b-
4C	4c	4a
2D	4B-	4g
.	4A	4f
2GG	[2B-	[2g
=65	=65	=65
2E-i	4B-]	4g]
.	4A	4f
2D	4G	4e
.	4F	4d
1C	1G	2.e
.	.	4d
=66	=66	=66
0FFl	0Fl	0fl
==	==	==
*-	*-	*-
!!!RDF**kern: l=long note in original notation
!!!RDF**kern: i=editorial accidental
!!!RDF**kern: N=signum congruentiae
!!!ENC:	Chris Gage 04-20-2015
!!!END:	2015/05/05/
!!!EED:	Jesse Rodin
!!!EEV:	2015/09/21/
!!!ONB:	Translated from MusicXML and edited on 2015/09/21/ by Craig Sapp
!!muse2ps: C^@{COM}^i2I150v95,95,150Q16
